public/assets/img/date-blue.svg

<svg width="11" height="12" viewBox="0 0 11 12" fill="none" xmlns="http://www.w3.org/2000/svg">
<path d="M9.77778 12H1.22222C0.547207 12 0 11.4627 0 10.8V2.4C0 1.73726 0.547207 1.2 1.22222 1.2H2.44444V0H3.66667V1.2H7.33333V0H8.55556V1.2H9.77778C10.4528 1.2 11 1.73726 11 2.4V10.8C11 11.4627 10.4528 12 9.77778 12ZM1.22222 4.8V10.8H9.77778V4.8H1.22222ZM1.22222 2.4V3.6H9.77778V2.4H1.22222ZM8.55556 9.6H7.33333V8.4H8.55556V9.6ZM6.11111 9.6H4.88889V8.4H6.11111V9.6ZM3.66667 9.6H2.44444V8.4H3.66667V9.6ZM8.55556 7.2H7.33333V6H8.55556V7.2ZM6.11111 7.2H4.88889V6H6.11111V7.2ZM3.66667 7.2H2.44444V6H3.66667V7.2Z" fill="#158AFF"/>
</svg>

<svg width="11" height="12" fill="none" xmlns="http://www.w3.org/2000/svg"><path d="M9.778 12H1.222A1.211 1.211 0 0 1 0 10.8V2.4c0-.663.547-1.2 1.222-1.2h1.222V0h1.223v1.2h3.666V0h1.223v1.2h1.222c.675 0 1.222.537 1.222 1.2v8.4c0 .663-.547 1.2-1.222 1.2ZM1.222 4.8v6h8.556v-6H1.222Zm0-2.4v1.2h8.556V2.4H1.222Zm7.334 7.2H7.333V8.4h1.223v1.2Zm-2.445 0H4.89V8.4H6.11v1.2Zm-2.444 0H2.444V8.4h1.223v1.2Zm4.889-2.4H7.333V6h1.223v1.2Zm-2.445 0H4.89V6H6.11v1.2Zm-2.444 0H2.444V6h1.223v1.2Z" fill="#158AFF"/></svg>
